img/svg/trade.svg

<svg width="48" height="48" viewBox="0 0 48 48" fill="none" xmlns="http://www.w3.org/2000/svg">
<g clip-path="url(#clip0)">
<path d="M43.4723 15.2489L41.4838 1.32787C41.3203 0.186562 39.9175 -0.287719 39.097 0.532781L36.2007 3.42909C32.4763 1.18237 28.2479 0 23.9001 0C10.825 0 0.327501 10.2338 0.000688965 23.2979C-0.0171235 24.012 0.50197 24.6245 1.20781 24.7261L6.82728 25.5294C7.66503 25.6517 8.44438 24.9939 8.43275 24.1178C8.31622 15.4956 15.2802 8.4375 23.9001 8.4375C25.9874 8.4375 28.0501 8.86181 29.9563 9.67341L27.1645 12.4653C26.3491 13.2806 26.8119 14.6877 27.9596 14.8521L41.8806 16.8406C42.7978 16.9789 43.6038 16.1812 43.4723 15.2489Z" fill="white"/>
<path d="M46.7922 23.3824L41.1768 22.5803C40.4514 22.4885 39.5715 23.1101 39.5715 24.0938C39.5715 32.6232 32.6322 39.5625 24.1027 39.5625C22.0263 39.5625 19.9732 39.1423 18.074 38.3389L20.7767 35.6363C21.592 34.8209 21.1293 33.4138 19.9816 33.2495L6.06053 31.2595C5.14619 31.1289 4.33647 31.9131 4.46884 32.8512L6.45728 46.7724C6.62097 47.9149 8.02253 48.386 8.84406 47.5675L11.8104 44.6025C15.5169 46.8286 19.7425 48 24.1027 48C37.1147 48 47.6107 37.8171 47.9993 24.8175C48.0199 24.102 47.5008 23.484 46.7922 23.3824Z" fill="white"/>
</g>
<defs>
<clipPath id="clip0">
<rect width="48" height="48" fill="white"/>
</clipPath>
</defs>
</svg>

<svg width="48" height="48" viewBox="0 0 48 48" fill="none" xmlns="http://www.w3.org/2000/svg"><g clip-path="url(#clip0)" fill="#fff"><path d="M43.472 15.249L41.484 1.328C41.32.187 39.917-.288 39.097.533l-2.896 2.896A23.75 23.75 0 0023.9 0C10.824 0 .327 10.234 0 23.298a1.407 1.407 0 001.207 1.428l5.62.803a1.408 1.408 0 001.605-1.411C8.316 15.496 15.28 8.438 23.9 8.438c2.087 0 4.15.424 6.056 1.235l-2.791 2.792c-.816.816-.353 2.223.795 2.387l13.92 1.989c.918.138 1.724-.66 1.592-1.592zm3.32 8.133l-5.615-.802c-.726-.091-1.605.53-1.605 1.514 0 8.53-6.94 15.468-15.47 15.468-2.076 0-4.129-.42-6.028-1.223l2.703-2.703c.815-.815.352-2.222-.795-2.387L6.06 31.26a1.41 1.41 0 00-1.592 1.592l1.988 13.921c.164 1.143 1.566 1.614 2.387.796l2.966-2.965A23.805 23.805 0 0024.103 48c13.012 0 23.508-10.183 23.896-23.183a1.408 1.408 0 00-1.207-1.435z"/></g><defs><clipPath id="clip0"><path fill="#fff" d="M0 0h48v48H0z"/></clipPath></defs></svg>
